frontend/src/components/footer/spacer.svg

<svg width="1080" height="100" xmlns="http://www.w3.org/2000/svg"><path d="m0 27 22.5.7c22.5.6 67.5 2 112.5 1s90-4.4 135-3.9c45 .5 90 4.9 135 7.5C450 35 495 36 540 34s90-7 135-10.2c45-3.1 90-4.5 135-4s90 2.9 135 8.2c45 5.3 90 13.7 112.5 17.8L1080 50v51H0z" fill="#f5f5f5"/><path d="m0 52 22.5-1.8C45 48.3 90 44.7 135 45.2s90 5.1 135 6.1 90-1.6 135-4.5c45-2.8 90-5.8 135-3.5 45 2.4 90 10 135 12.4 45 2.3 90-.7 135-3.7s90-6 135-5.3c45 .6 90 5 112.5 7.1L1080 56v45H0z" fill="#9c9c9c"/><path d="m0 76 22.5-2.3C45 71.3 90 66.7 135 63c45-3.7 90-6.3 135-4.8s90 7.1 135 8.3c45 1.2 90-2.2 135-1.7 45 .5 90 4.9 135 7 45 2.2 90 2.2 135 0 45-2.1 90-6.5 135-8.8 45-2.3 90-2.7 112.5-2.8l22.5-.2v41H0z" fill="#4c4c4c"/><path d="m0 73 22.5.7c22.5.6 67.5 2 112.5 2s90-1.4 135-1.7c45-.3 90 .3 135 2s90 4.3 135 4c45-.3 90-3.7 135-5.3 45-1.7 90-1.7 135-1.9 45-.1 90-.5 135 2.2s90 8.3 112.5 11.2L1080 89v12H0z"/></svg>

<svg id="visual" viewBox="0 0 1080 100" width="1080" height="100" xmlns="http://www.w3.org/2000/svg" xmlns:xlink="http://www.w3.org/1999/xlink" version="1.1"><path d="M0 27L22.5 27.7C45 28.3 90 29.7 135 28.7C180 27.7 225 24.3 270 24.8C315 25.3 360 29.7 405 32.3C450 35 495 36 540 34C585 32 630 27 675 23.8C720 20.7 765 19.3 810 19.8C855 20.3 900 22.7 945 28C990 33.3 1035 41.7 1057.5 45.8L1080 50L1080 101L1057.5 101C1035 101 990 101 945 101C900 101 855 101 810 101C765 101 720 101 675 101C630 101 585 101 540 101C495 101 450 101 405 101C360 101 315 101 270 101C225 101 180 101 135 101C90 101 45 101 22.5 101L0 101Z" fill="#f5f5f5"></path><path d="M0 52L22.5 50.2C45 48.3 90 44.7 135 45.2C180 45.7 225 50.3 270 51.3C315 52.3 360 49.7 405 46.8C450 44 495 41 540 43.3C585 45.7 630 53.3 675 55.7C720 58 765 55 810 52C855 49 900 46 945 46.7C990 47.3 1035 51.7 1057.5 53.8L1080 56L1080 101L1057.5 101C1035 101 990 101 945 101C900 101 855 101 810 101C765 101 720 101 675 101C630 101 585 101 540 101C495 101 450 101 405 101C360 101 315 101 270 101C225 101 180 101 135 101C90 101 45 101 22.5 101L0 101Z" fill="#9c9c9c"></path><path d="M0 76L22.5 73.7C45 71.3 90 66.7 135 63C180 59.3 225 56.7 270 58.2C315 59.7 360 65.3 405 66.5C450 67.7 495 64.3 540 64.8C585 65.3 630 69.7 675 71.8C720 74 765 74 810 71.8C855 69.7 900 65.3 945 63C990 60.7 1035 60.3 1057.5 60.2L1080 60L1080 101L1057.5 101C1035 101 990 101 945 101C900 101 855 101 810 101C765 101 720 101 675 101C630 101 585 101 540 101C495 101 450 101 405 101C360 101 315 101 270 101C225 101 180 101 135 101C90 101 45 101 22.5 101L0 101Z" fill="#4c4c4c"></path><path d="M0 73L22.5 73.7C45 74.3 90 75.7 135 75.7C180 75.7 225 74.3 270 74C315 73.7 360 74.3 405 76C450 77.7 495 80.3 540 80C585 79.7 630 76.3 675 74.7C720 73 765 73 810 72.8C855 72.7 900 72.3 945 75C990 77.7 1035 83.3 1057.5 86.2L1080 89L1080 101L1057.5 101C1035 101 990 101 945 101C900 101 855 101 810 101C765 101 720 101 675 101C630 101 585 101 540 101C495 101 450 101 405 101C360 101 315 101 270 101C225 101 180 101 135 101C90 101 45 101 22.5 101L0 101Z" fill="#000000"></path></svg>
